apps/16/qbittorrent.svg

<?xml version="1.0" encoding="UTF-8"?>
<svg id="b" width="16" height="16" version="1.1" xmlns="http://www.w3.org/2000/svg" xmlns:cc="http://creativecommons.org/ns#" xmlns:dc="http://purl.org/dc/elements/1.1/" xmlns:rdf="http://www.w3.org/1999/02/22-rdf-syntax-ns#">
	<metadata id="a">
		<rdf:RDF>
			<cc:Work rdf:about="">
				<dc:format>image/svg+xml</dc:format>
				<dc:type rdf:resource="http://purl.org/dc/dcmitype/StillImage"/>
				<dc:title/>
			</cc:Work>
		</rdf:RDF>
	</metadata>
	<defs>
		<style id="current-color-scheme" type="text/css">.ColorScheme-Text {color:#090d11;}.ColorScheme-Background{color:#ffffff;}</style>
	</defs>
	<path id="c" d="m9.5 2-1.5 2h1v4 3h1v-0.78125c0.5317 0.4795 1.2276 0.78125 2 0.78125 1.6569 0 3-1.3431 3-3s-1.3431-3-3-3c-0.7724 0-1.4683 0.30185-2 0.78125v-1.7812h1zm-5.5 3c-1.6569 0-3 1.3431-3 3s1.3431 3 3 3c0.7724 0 1.4683-0.30185 2-0.78125v1.7812h-1l1.5 2 1.5-2h-1v-4-3h-1v0.78125c-0.5317-0.4795-1.2276-0.78125-2-0.78125zm0.5 0.84375c0.8284 0 1.5 0.97275 1.5 2.1562s-0.6716 2.1562-1.5 2.1562-1.5-0.97275-1.5-2.1562 0.6716-2.1562 1.5-2.1562zm7 0c0.8284 0 1.5 0.97275 1.5 2.1562s-0.6716 2.1562-1.5 2.1562-1.5-0.97275-1.5-2.1562 0.6716-2.1562 1.5-2.1562z" style="fill-opacity:.75;fill:currentColor" class="ColorScheme-Text"/>
	<path id="d" d="m10.5 0-2.5 2h1.5 0.5v0.65625l1 1.3438v-2h2zm0.5 4h-1v1.25 0.53125c0.2896-0.2612 0.6272-0.45805 1-0.59375 0.03-0.011 0.06275-0.02125 0.09375-0.03125 0.1285-0.042 0.27135-0.06675 0.40625-0.09375 0.1634-0.028 0.3281-0.0625 0.5-0.0625 1.6569 0 3 1.3431 3 3 0 0.2071-0.0235 0.39845-0.0625 0.59375-0.2797 1.367-1.4878 2.4062-2.9375 2.4062-0.3518 0-0.6865-0.075-1-0.1875-0.3728-0.1357-0.7104-0.33265-1-0.59375v0.53125 0.25 1h1v-0.40625c0.4561 0.2532 0.956 0.40625 1.5 0.40625 1.933 0 3.5-1.7909 3.5-4s-1.567-4-3.5-4c-0.544 0-1.0439 0.15295-1.5 0.40625zm-7.5 0c-1.933 0-3.5 1.7909-3.5 4s1.567 4 3.5 4c0.544 0 1.0439-0.15305 1.5-0.40625v0.40625h1v-1.25-0.53125c-0.2896 0.2611-0.6272 0.45805-1 0.59375-0.03 0.011-0.06275 0.02125-0.09375 0.03125-0.1284 0.042-0.27135 0.06675-0.40625 0.09375-0.1634 0.028-0.3281 0.0625-0.5 0.0625-1.6569 0-3-1.3431-3-3 0-0.2071 0.0235-0.39855 0.0625-0.59375 0.2797-1.3671 1.4878-2.4062 2.9375-2.4062 0.3518 0 0.6865 0.075 1 0.1875 0.3728 0.1357 0.7104 0.33255 1 0.59375v-0.53125-0.25-1h-1v0.40625c-0.4561-0.2533-0.956-0.40625-1.5-0.40625zm1.5 8v2h-2l2.5 2 2.5-2h-1.5-0.5v-0.65625zm0-6.0312v4.0625c0.5844-0.2963 1-1.0964 1-2.0312s-0.4156-1.735-1-2.0312zm6 0c-0.5844 0.2962-1 1.0964-1 2.0312s0.4156 1.735 1 2.0312z" style="fill-opacity:.5;fill:currentColor"  class="ColorScheme-Background"/>
</svg>

<?xml version="1.0" encoding="UTF-8" standalone="no"?>
<!-- Created with Inkscape (http://www.inkscape.org/) -->

<svg
   xmlns:dc="http://purl.org/dc/elements/1.1/"
   xmlns:cc="http://creativecommons.org/ns#"
   xmlns:rdf="http://www.w3.org/1999/02/22-rdf-syntax-ns#"
   xmlns:svg="http://www.w3.org/2000/svg"
   xmlns="http://www.w3.org/2000/svg"
   xmlns:sodipodi="http://sodipodi.sourceforge.net/DTD/sodipodi-0.dtd"
   xmlns:inkscape="http://www.inkscape.org/namespaces/inkscape"
   width="16"
   height="16"
   id="svg27665"
   version="1.1"
   inkscape:version="0.48.4 r9939"
   sodipodi:docname="qbittorrent.svg">
  <defs
     id="defs27667" />
  <sodipodi:namedview
     id="base"
     pagecolor="#ffffff"
     bordercolor="#666666"
     borderopacity="1.0"
     inkscape:pageopacity="0.0"
     inkscape:pageshadow="2"
     inkscape:zoom="32"
     inkscape:cx="12.505736"
     inkscape:cy="8.2029366"
     inkscape:document-units="px"
     inkscape:current-layer="layer1"
     showgrid="true"
     inkscape:window-width="1920"
     inkscape:window-height="1018"
     inkscape:window-x="-5"
     inkscape:window-y="25"
     inkscape:window-maximized="1"
     inkscape:snap-bbox="true"
     inkscape:bbox-paths="true"
     inkscape:bbox-nodes="true"
     inkscape:snap-bbox-edge-midpoints="true"
     inkscape:snap-bbox-midpoints="true"
     inkscape:object-paths="true"
     inkscape:snap-intersection-paths="true"
     inkscape:object-nodes="true"
     inkscape:snap-smooth-nodes="true"
     inkscape:snap-midpoints="true"
     inkscape:snap-object-midpoints="true"
     inkscape:snap-center="true"
     inkscape:snap-global="true"
     showguides="false"
     inkscape:guide-bbox="true"
     fit-margin-top="0"
     fit-margin-left="0"
     fit-margin-right="0"
     fit-margin-bottom="0"
     inkscape:showpageshadow="false">
    <sodipodi:guide
       orientation="0,1"
       position="599.99999,299.99993"
       id="guide3572" />
    <sodipodi:guide
       orientation="1,0"
       position="294.41949,12.121716"
       id="guide3574" />
    <sodipodi:guide
       orientation="0,1"
       position="456.04389,599.99992"
       id="guide3576" />
    <sodipodi:guide
       orientation="0,1"
       position="-2.8882813e-06,-8.4406273e-05"
       id="guide3578" />
    <sodipodi:guide
       orientation="1,0"
       position="-2.8882813e-06,157.58366"
       id="guide3580" />
    <sodipodi:guide
       orientation="1,0"
       position="599.99999,121.21821"
       id="guide3582" />
    <sodipodi:guide
       orientation="0,1"
       position="599.99999,-714.34359"
       id="guide5928" />
    <sodipodi:guide
       orientation="0,1"
       position="599.99999,-414.34359"
       id="guide5930" />
    <sodipodi:guide
       orientation="0,1"
       position="599.99999,-1014.3435"
       id="guide5932" />
    <sodipodi:guide
       orientation="0,1"
       position="451.57029,524.99606"
       id="guide5294" />
    <sodipodi:guide
       orientation="0,1"
       position="451.57029,75.013516"
       id="guide5296" />
    <sodipodi:guide
       orientation="0,1"
       position="496.01499,-931.36409"
       id="guide5413" />
    <sodipodi:guide
       orientation="0,1"
       position="457.34859,-489.34389"
       id="guide5415" />
    <inkscape:grid
       type="xygrid"
       id="grid3070"
       empspacing="5"
       visible="true"
       enabled="true"
       snapvisiblegridlinesonly="true"
       originx="4.3243213e-05px"
       originy="-2.6947047e-05px" />
  </sodipodi:namedview>
  <metadata
     id="metadata27670">
    <rdf:RDF>
      <cc:Work
         rdf:about="">
        <dc:format>image/svg+xml</dc:format>
        <dc:type
           rdf:resource="http://purl.org/dc/dcmitype/StillImage" />
        <dc:title />
      </cc:Work>
    </rdf:RDF>
  </metadata>
  <g
     inkscape:label="Camada 1"
     inkscape:groupmode="layer"
     id="layer1"
     transform="translate(3364.4171,-2100.7186)">
    <path
       style="color:#000000;fill:#f1f3f5;fill-opacity:0.90288714000000003;fill-rule:nonzero;stroke:none;stroke-width:2;marker:none;visibility:visible;display:inline;overflow:visible;enable-background:accumulate"
       d="M 10.5 0 L 8 2 L 9.5 2 L 10 2 L 10 2.65625 L 11 4 L 11 2 L 13 2 L 10.5 0 z M 11 4 L 10 4 L 10 5.25 L 10 5.78125 C 10.2896 5.52005 10.6272 5.3232 11 5.1875 C 11.03 5.1765 11.06275 5.16625 11.09375 5.15625 C 11.22225 5.11425 11.3651 5.0895 11.5 5.0625 C 11.6634 5.0345 11.8281 5 12 5 C 13.6569 5 15 6.3431 15 8 C 15 8.2071 14.9765 8.39845 14.9375 8.59375 C 14.6578 9.96075 13.4497 11 12 11 C 11.6482 11 11.3135 10.925 11 10.8125 C 10.6272 10.6768 10.2896 10.47985 10 10.21875 L 10 10.75 L 10 11 L 10 12 L 11 12 L 11 11.59375 C 11.4561 11.84695 11.956 12 12.5 12 C 14.433 12 16 10.2091 16 8 C 16 5.7909 14.433 4 12.5 4 C 11.956 4 11.4561 4.15295 11 4.40625 L 11 4 z M 3.5 4 C 1.567 4 0 5.7909 0 8 C 0 10.2091 1.567 12 3.5 12 C 4.044 12 4.5439 11.84695 5 11.59375 L 5 12 L 6 12 L 6 10.75 L 6 10.21875 C 5.7104 10.47985 5.3728 10.6768 5 10.8125 C 4.97 10.8235 4.93725 10.83375 4.90625 10.84375 C 4.77785 10.88575 4.6349 10.9105 4.5 10.9375 C 4.3366 10.9655 4.1719 11 4 11 C 2.3431 11 1 9.6569 1 8 C 1 7.7929 1.0235 7.60145 1.0625 7.40625 C 1.3422 6.03915 2.5503 5 4 5 C 4.3518 5 4.6865 5.075 5 5.1875 C 5.3728 5.3232 5.7104 5.52005 6 5.78125 L 6 5.25 L 6 5 L 6 4 L 5 4 L 5 4.40625 C 4.5439 4.15295 4.044 4 3.5 4 z M 5 12 L 5 14 L 3 14 L 5.5 16 L 8 14 L 6.5 14 L 6 14 L 6 13.34375 L 5 12 z M 5 5.96875 L 5 10.03125 C 5.5844 9.73495 6 8.9349 6 8 C 6 7.0651 5.5844 6.26495 5 5.96875 z M 11 5.96875 C 10.4156 6.26495 10 7.0651 10 8 C 10 8.9349 10.4156 9.73495 11 10.03125 L 11 5.96875 z "
       transform="translate(-3364.4171,2100.7186)"
       id="rect3822" />
    <path
       style="color:#000000;fill:#27303a;fill-opacity:0.753280819999999968;fill-rule:nonzero;stroke:none;stroke-width:2;marker:none;visibility:visible;display:inline;overflow:visible;enable-background:accumulate"
       d="M 9.5 2 L 8 4 L 9 4 L 9 8 L 9 11 L 10 11 L 10 10.21875 C 10.5317 10.69825 11.2276 11 12 11 C 13.6569 11 15 9.6569 15 8 C 15 6.3431 13.6569 5 12 5 C 11.2276 5 10.5317 5.30185 10 5.78125 L 10 4 L 11 4 L 9.5 2 z M 4 5 C 2.3431 5 1 6.3431 1 8 C 1 9.6569 2.3431 11 4 11 C 4.7724 11 5.4683 10.69815 6 10.21875 L 6 12 L 5 12 L 6.5 14 L 8 12 L 7 12 L 7 8 L 7 5 L 6 5 L 6 5.78125 C 5.4683 5.30175 4.7724 5 4 5 z M 4.5 5.84375 C 5.3284 5.84375 6 6.8165 6 8 C 6 9.1835 5.3284 10.15625 4.5 10.15625 C 3.6716 10.15625 3 9.1835 3 8 C 3 6.8165 3.6716 5.84375 4.5 5.84375 z M 11.5 5.84375 C 12.3284 5.84375 13 6.8165 13 8 C 13 9.1835 12.3284 10.15625 11.5 10.15625 C 10.6716 10.15625 10 9.1835 10 8 C 10 6.8165 10.6716 5.84375 11.5 5.84375 z "
       transform="translate(-3364.4171,2100.7186)"
       id="path3830" />
  </g>
</svg>
